resources/haticons/SVG/fat-bag.svg

<!-- Generated by IcoMoon.io -->
<svg version="1.1" xmlns="http://www.w3.org/2000/svg" width="24" height="24" viewBox="0 0 24 24">
<title>fat-bag</title>
<path d="M22.54 20.097l-1.012-13.301c-0.145-1.157-1.012-2.024-2.169-2.024h-3.759v-1.302c0-1.879-1.591-3.47-3.47-3.47s-3.47 1.59-3.47 3.47v1.301h-4.048c-1.157 0-2.024 0.867-2.169 2.024l-1.013 13.302c0 1.012 0.289 2.024 1.012 2.747 0.578 0.723 1.59 1.157 2.602 1.157h14.024c1.012 0 2.024-0.434 2.458-1.157 0.724-0.723 1.157-1.735 1.013-2.747zM10.106 3.47c0-1.157 0.867-2.024 2.024-2.024s2.024 0.867 2.024 2.024v1.301h-4.048zM20.805 21.831c-0.434 0.434-1.012 0.723-1.59 0.723h-14.024c-0.578 0-1.157-0.289-1.59-0.723s-0.578-1.012-0.578-1.59l1.012-13.301c0-0.434 0.289-0.723 0.723-0.723h3.903v1.735c0 0.434 0.289 0.723 0.723 0.723s0.723-0.289 0.723-0.723v-1.736h4.048v1.735c0 0.434 0.289 0.723 0.723 0.723 0.289 0 0.723-0.289 0.723-0.723v-1.735h4.048c0.434 0 0.723 0.289 0.723 0.723l1.012 13.301c0.001 0.579-0.144 1.157-0.577 1.591z"></path>
</svg>

<svg xmlns="http://www.w3.org/2000/svg" width="24" height="24"><path d="M22.54 20.097L21.528 6.796c-.145-1.157-1.012-2.024-2.169-2.024H15.6V3.47C15.6 1.591 14.009 0 12.13 0S8.66 1.59 8.66 3.47v1.301H4.612c-1.157 0-2.024.867-2.169 2.024L1.43 20.097c0 1.012.289 2.024 1.012 2.747.578.723 1.59 1.157 2.602 1.157h14.024c1.012 0 2.024-.434 2.458-1.157.724-.723 1.157-1.735 1.013-2.747zM10.106 3.47c0-1.157.867-2.024 2.024-2.024s2.024.867 2.024 2.024v1.301h-4.048zm10.699 18.361c-.434.434-1.012.723-1.59.723H5.191c-.578 0-1.157-.289-1.59-.723s-.578-1.012-.578-1.59L4.035 6.94c0-.434.289-.723.723-.723h3.903v1.735c0 .434.289.723.723.723s.723-.289.723-.723V6.216h4.048v1.735c0 .434.289.723.723.723.289 0 .723-.289.723-.723V6.216h4.048c.434 0 .723.289.723.723l1.012 13.301c.001.579-.144 1.157-.577 1.591z"/></svg>
